!!!OTL: 1491. Die lustige Schaeferei.
!!!ODT: 1842
!!!ARE: Europa, Mitteleuropa, Deutschland, Bergstrasse
!!!SCT: E1491A
!!!TXL: @@DE
!!!YEM: Copyright 1995, estate of Helmut Schaffrath.
**kern	**text
*ICvox	*
!! Mixed meters:  3/4; 2/4
*M2/4	*
*k[]	*
*C:	*
!LO:TX:a:t=Mäßig langsam.	!
!LO:TX:a:t=Von der Bergſtraße 1842.	!
{8c	Schä-
8e	-fer,
=1	=1
4.g	ſag
8g	wo
8g	willſt
8cc	du
=2	=2
8ccL	wei-
8eJ	.
4e}	-den?
{8e	Drauß'n
8g	im
=3	=3
4.g	Feld
8f	auf
8f	grü-
8a	-ner
=4	=4
8a	Hei-
8g	.
4g	-den.
4r}	.
=5	=5
*M2/4	*
{8e	Drauß'n
8g	im
8g	Feld
8g	auf
=6	=6
8e	grü-
8g	-ner
8g	Hei-
8g}	-den
=7	=7
{8.cc	müſ-
16b	-ſen
8a	luſt-
8g	-ge
=8	=8
8g	Schä-
8f	-fer
8f	wei-
8f}	-den.
=9	=9
*M3/4	*
{4a^	Ja,
4g^	ſagt
4f^	er
=10	=10
8e	's_bleibt
8f	da-
4g	-bei,
8r}	.
{8g	ja
=11	=11
8g	lu-
8cc	-ſtig
4ee	iſt
4ee	die
=12	=12
8dd	Schä-
8b	-fe-
4cc}	-rei.
==	==
!!!AGN: Staende - Lied, Hirten -,  Schaefer - Lied
!!!ONB: ESAC (Essen Associative Code) Database: ERK3
!!!AMT: irregular
!!!AIN: vox
!!!EED: Helmut Schaffrath
!!!EEV: 1.0
!!!GTL: Staendelieder (Berufslieder). 3. Hirtenlieder. Schaeferlieder.
!!!URL-scan: https://rosdok.uni-rostock.de/mcrviewer/recordIdentifier/rosdok_ppn745177999/iview2/phys_0348.iview2?x=-128.77276441889285&y=648.098756293999&scale=0.5870222003877487&rotation=0&layout=singlePageLayout
!!!ENC: Anna Maria Matuszewska
!!!EEV: 2025/03/01
*-	*-
